groups/nitrogen/nitrile.svg

<?xml version='1.0' encoding='iso-8859-1'?>
<svg version='1.1' baseProfile='full'
              xmlns='http://www.w3.org/2000/svg'
                      xmlns:rdkit='http://www.rdkit.org/xml'
                      xmlns:xlink='http://www.w3.org/1999/xlink'
                  xml:space='preserve'
width='256px' height='256px' viewBox='0 0 256 256'>
<!-- END OF HEADER -->
<rect style='opacity:1.0;fill:#FFFFFF;stroke:none' width='256.0' height='256.0' x='0.0' y='0.0'> </rect>
<path class='bond-0 atom-0 atom-1' d='M 42.8,163.5 L 135.0,110.7' style='fill:none;fill-rule:evenodd;stroke:#000000;stroke-width:2.0px;stroke-linecap:butt;stroke-linejoin:miter;stroke-opacity:1' />
<path class='bond-1 atom-1 atom-2' d='M 135.0,110.7 L 211.7,66.8' style='fill:none;fill-rule:evenodd;stroke:#000000;stroke-width:2.0px;stroke-linecap:butt;stroke-linejoin:miter;stroke-opacity:1' />
<path class='bond-1 atom-1 atom-2' d='M 127.1,96.9 L 203.8,53.0' style='fill:none;fill-rule:evenodd;stroke:#000000;stroke-width:2.0px;stroke-linecap:butt;stroke-linejoin:miter;stroke-opacity:1' />
<path class='bond-1 atom-1 atom-2' d='M 142.9,124.6 L 219.6,80.7' style='fill:none;fill-rule:evenodd;stroke:#000000;stroke-width:2.0px;stroke-linecap:butt;stroke-linejoin:miter;stroke-opacity:1' />
<path d='M 130.4,113.4 L 135.0,110.7 L 138.8,108.5' style='fill:none;stroke:#000000;stroke-width:2.0px;stroke-linecap:butt;stroke-linejoin:miter;stroke-miterlimit:10;stroke-opacity:1;' />
<path class='atom-1' d='M69.1704,209.661 C72.6292,207.681 69.9889,203.069 66.5302,205.05 C63.0714,207.03 60.4312,202.418 63.8899,200.438 C67.3487,198.458 64.7084,193.846 61.2497,195.826 C57.7909,197.806 55.1507,193.194 58.6094,191.214 C62.0682,189.234 59.4279,184.622 55.9692,186.602 C52.5105,188.582 49.8702,183.97 53.329,181.99 C56.7877,180.01 54.1475,175.398 50.6887,177.378 C47.23,179.358 44.5897,174.746 48.0485,172.766 C51.5072,170.786 48.867,166.174 45.4082,168.154 C41.9495,170.134 39.3092,165.522 42.768,163.542 C46.2267,161.562 43.5865,156.95 40.1277,158.93 C36.669,160.91 34.0288,156.298 37.4875,154.318 C40.9462,152.338 38.306,147.726 34.8473,149.707 C31.3885,151.687 28.7483,147.075 32.207,145.095 C35.6658,143.115 33.0255,138.503 29.5668,140.483 C26.108,142.463 23.4678,137.851 26.9265,135.871 C30.3853,133.891 27.745,129.279 24.2863,131.259 C20.8275,133.239 18.1873,128.627 21.646,126.647 C25.1048,124.667 22.4645,120.055 19.0058,122.035 C15.5471,124.015 12.9068,119.403 16.3656,117.423' style='fill:none;stroke:#7F7F7F;stroke-width:2.0px;stroke-linecap:butt;stroke-linejoin:miter;stroke-opacity:1' />
<text x='215.2' y='77.9' class='atom-2' style='font-size:40px;font-style:normal;font-weight:normal;fill-opacity:1;stroke:none;font-family:sans-serif;text-anchor:start;fill:#000000' >N</text>
</svg>

<svg height="256" viewBox="0 0 256 256" width="256" xmlns="http://www.w3.org/2000/svg"><path d="m0 0h256v256h-256z" fill="#fff"/><g fill="none" stroke-width="2"><path d="m42.8 163.5 92.2-52.8" stroke="#000"/><path d="m135 110.7 76.7-43.9" stroke="#000"/><path d="m127.1 96.9 76.7-43.9" stroke="#000"/><path d="m142.9 124.6 76.7-43.9" stroke="#000"/><path d="m130.4 113.4 4.6-2.7 3.8-2.2" stroke="#000" stroke-miterlimit="10"/><path d="m69.17 209.661c3.459-1.98.819-6.592-2.64-4.611-3.459 1.98-6.099-2.632-2.64-4.612s.818-6.592-2.64-4.612c-3.459 1.98-6.099-2.632-2.641-4.612 3.459-1.98.819-6.592-2.64-4.612-3.458 1.98-6.099-2.632-2.64-4.612s.819-6.592-2.64-4.612-6.099-2.632-2.64-4.612c3.458-1.98.818-6.592-2.641-4.612-3.458 1.98-6.099-2.632-2.64-4.612s.819-6.592-2.64-4.612-6.099-2.632-2.64-4.612c3.458-1.98.818-6.592-2.641-4.611-3.458 1.98-6.099-2.632-2.64-4.612s.819-6.592-2.64-4.612-6.099-2.632-2.64-4.612c3.458-1.98.818-6.592-2.641-4.612-3.458 1.98-6.099-2.632-2.64-4.612s.819-6.592-2.64-4.612-6.099-2.632-2.64-4.612" stroke="#7f7f7f"/></g><text font-family="sans-serif" font-size="40" x="215.2" y="77.9">N</text></svg>
